X: 16034
T: Green Cottage, The
R: polka
M: 2/4
K: Adorian
A/B/|:cB AG|EA A>B|cB AG|B/c/d e>d|
cB AG|ED Dc/d/|ed cB|1 A2 A>B:|2 A2 Ac/d/||
|:ea a>b|ae ed|ea ag|a2 AB|
c2 B{c}B|Ae e>d|eA A/B/c/d/|1 e2 e>d:|2 e2 eA/B/||

